X:755
T: Mossy Banks (b)
T: Na Bruacha Caonaigh
S: B.Breathnach: "Ceol Rince na hEireann" II/216
Z: B.Black
L: 1/8
M: 4/4
R: reel
K: G
gedB G2 GA|BAGB AE (3EEE|DEGA Bddd|edgd eg g2|
gedB G2 GA|BAGB AE (3EEE|Bddd edge|1 dBAc BG G2 :|2\
dBAc BGG ||
D|: G2 GB A2 GE|DEGB AEEE|Bdd>d edge|dBGA BAAB|
G2 GG A2 GE|DEGB AE (3EEE|Bddd edge|dBAc BG G2 :|
g2 dg egdg|g2 bg agef|g2 dg egdB|ABGA BA A2|
g2 dg eggd|g2 bg agef|g2 ga gfed|efga (3bag g2 :|

